svgs/sharp-regular/light-switch-on.svg

<svg xmlns="http://www.w3.org/2000/svg" viewBox="0 0 384 512"><!--! Font Awesome Pro 6.6.0 by @fontawesome - https://fontawesome.com License - https://fontawesome.com/license (Commercial License) Copyright 2024 Fonticons, Inc. --><path d="M168 48l0 16 48 0 0-16 120 0 0 416-120 0 0-16-48 0 0 16L48 464 48 48l120 0zM48 0L0 0 0 48 0 464l0 48 48 0 288 0 48 0 0-48 0-416 0-48L336 0 48 0zM240 256l0 112-96 0 0-112 96 0zM144 96L96 96l0 48 0 224 0 48 48 0 96 0 48 0 0-48 0-224 0-48-48 0-96 0z"/></svg>

<svg xmlns="http://www.w3.org/2000/svg" viewBox="0 0 384 512"><!--! Font Awesome Pro 6.4.2 by @fontawesome - https://fontawesome.com License - https://fontawesome.com/license (Commercial License) Copyright 2023 Fonticons, Inc. --><path d="M168 48V64h48V48H336V464H216V448H168v16H48V48H168zM48 0H0V48 464v48H48 336h48V464 48 0H336 48zM240 256V368H144V256h96zM144 96H96v48V368v48h48 96 48V368 144 96H240 144z"/></svg>
